app/images/icon/icon-svg/orthopedy.svg

<svg width="110" height="110" viewBox="0 0 110 110" fill="none" xmlns="http://www.w3.org/2000/svg">
<path d="M103.88 19.3332C103.878 19.3308 103.876 19.3289 103.874 19.3268C103.872 19.3255 103.87 19.3235 103.869 19.3222C103.866 19.319 103.863 19.3158 103.859 19.3126C103.858 19.3113 103.856 19.3096 103.855 19.3083C103.853 19.3066 103.852 19.3051 103.85 19.3033C103.848 19.3016 103.845 19.2988 103.844 19.2969C103.843 19.2965 103.843 19.296 103.842 19.2956C101.347 16.8094 98.3354 15.1474 95.1505 14.3089C94.2856 11.0108 92.5993 8.05219 90.1999 5.65302C82.6625 -1.88434 70.3986 -1.88434 62.8612 5.65302C55.9708 12.5435 55.4807 23.1181 60.7708 30.5257L49.9437 41.3528C49.1821 42.1144 48.8513 43.2064 49.0627 44.2628L51.3409 55.6541C51.5961 56.9296 52.593 57.9263 53.8683 58.1815L65.2595 60.4595C66.3275 60.673 67.4163 60.3316 68.1696 59.5784L78.9966 48.7513C86.479 54.0947 97.0725 53.482 103.869 46.6609C111.403 39.1283 111.406 26.8716 103.88 19.3332ZM99.3127 42.1043C99.2824 42.1346 99.2521 42.1644 99.2216 42.1945C99.2205 42.1956 99.2192 42.1969 99.2182 42.198C93.6337 47.6718 85.194 46.4779 81.1846 42.2008C81.1406 42.1578 81.1219 42.1389 81.0871 42.1043C81.0854 42.1026 81.0821 42.0991 81.08 42.0972C80.484 41.5051 79.6805 41.1568 78.7704 41.1609C78.77 41.1607 78.7539 41.1609 78.7534 41.1611C77.8898 41.176 77.0931 41.5427 76.5717 42.0639C76.5706 42.0639 64.8331 53.8017 64.8322 53.8025L57.2381 52.2838L55.7194 44.6897L67.4176 32.9915C68.0218 32.3873 68.3614 31.5679 68.3614 30.7133C68.3614 29.8586 68.0218 29.0394 67.4176 28.4353C62.3806 23.3981 62.3806 15.2467 67.4176 10.2094C72.4424 5.18466 80.6185 5.18488 85.6435 10.2094C86.6831 11.2491 87.521 12.4526 88.1372 13.7788C83.8955 14.2305 79.7746 16.0783 76.5307 19.3225C75.2723 20.5808 75.2723 22.6205 76.5307 23.8789C77.7888 25.1372 79.8287 25.1372 81.0871 23.8789C86.3675 18.5989 94.6147 19.1936 99.3007 23.8666C99.3013 23.8673 99.3024 23.8683 99.303 23.869C99.3041 23.8701 99.3054 23.8714 99.3067 23.8724C99.3088 23.8746 99.311 23.8767 99.3131 23.8789C104.337 28.9032 104.337 37.0793 99.3127 42.1043Z" fill="#FFC59E"/>
<path d="M39.0302 34.5177L34.4738 29.9613C33.2157 28.703 31.1757 28.703 29.9174 29.9613C28.659 31.2197 28.659 33.2594 29.9174 34.5177L34.4738 39.0742C35.7319 40.3325 37.7719 40.3325 39.0302 39.0742C40.2883 37.8158 40.2883 35.7759 39.0302 34.5177Z" fill="#FFC59E"/>
<path d="M36.7518 42.5645H27.639C25.8597 42.5645 24.417 44.0069 24.417 45.7863C24.417 47.5656 25.8595 49.008 27.639 49.008H36.7518C38.5312 49.008 39.9736 47.5656 39.9736 45.7863C39.9736 44.0069 38.5312 42.5645 36.7518 42.5645Z" fill="#FFC59E"/>
<path d="M45.7413 24.4619C43.962 24.4619 42.5195 25.9044 42.5195 27.6837V36.7965C42.5195 38.5759 43.962 40.0183 45.7413 40.0183C47.5207 40.0183 48.9631 38.5759 48.9631 36.7965V27.6837C48.9633 25.9044 47.5209 24.4619 45.7413 24.4619Z" fill="#FFC59E"/>
<path d="M80.038 75.5256L75.4816 70.9691C74.2233 69.7108 72.1833 69.7108 70.9252 70.9691C69.6669 72.2275 69.6669 74.2672 70.9252 75.5256L75.4816 80.082C76.7397 81.3403 78.7799 81.3403 80.038 80.082C81.2964 78.8236 81.2964 76.7837 80.038 75.5256Z" fill="#FFC59E"/>
<path d="M63.9991 70.0264C62.2198 70.0264 60.7773 71.4688 60.7773 73.2482V82.361C60.7773 84.1403 62.2198 85.5828 63.9991 85.5828C65.7785 85.5828 67.2209 84.1403 67.2209 82.361V73.2482C67.2212 71.4688 65.7785 70.0264 63.9991 70.0264Z" fill="#FFC59E"/>
<path d="M82.3163 60.8213H73.2032C71.4239 60.8213 69.9814 62.2638 69.9814 64.0431C69.9814 65.8224 71.4239 67.2649 73.2032 67.2649H82.3161C84.0956 67.2649 85.5381 65.8224 85.5381 64.0431C85.5381 62.2638 84.0956 60.8213 82.3163 60.8213Z" fill="#FFC59E"/>
<path d="M60.3414 65.4838C59.9978 64.3445 59.0547 63.4871 57.8881 63.2535L48.6032 61.3964L46.746 52.1115C46.5134 50.9479 45.66 50.0067 44.525 49.6612C43.3904 49.3157 42.157 49.6219 41.3152 50.4583L30.5309 61.1779C22.9858 55.8032 12.4166 56.4975 5.65286 63.2612C-1.88429 70.7986 -1.88429 83.0625 5.65286 90.5999C8.0531 93.0004 11.0141 94.6867 14.3145 95.5514C18.1114 109.973 36.1648 114.766 46.6608 104.269C53.4378 97.4923 54.1423 86.9559 48.7566 79.404L59.5273 68.6979C60.3717 67.8589 60.6847 66.6233 60.3414 65.4838ZM42.1112 76.9238C42.1099 76.9251 42.1086 76.9268 42.1073 76.9281C42.1065 76.929 42.1054 76.9298 42.1046 76.9307C40.8524 78.1798 40.8449 80.2268 42.1046 81.4871C47.1489 86.5316 47.13 94.6873 42.1046 99.7129C34.6175 107.2 21.7601 102.977 20.2867 92.3829C19.6714 87.9603 21.2136 84.1522 23.8787 81.4871C25.1371 80.2288 25.1371 78.189 23.8787 76.9307C22.6206 75.6723 20.5806 75.6723 19.3223 76.9307C16.0784 80.1746 14.2344 84.2949 13.7828 88.5363C12.4552 87.9199 11.2495 87.0838 10.2093 86.0437C5.1845 81.0189 5.1845 72.8429 10.2093 67.8179C15.2343 62.7929 23.4104 62.7931 28.4351 67.8179C29.6909 69.0736 31.7255 69.0764 32.9846 67.8247L41.6038 59.2572L42.7057 64.7664C42.9609 66.042 43.9578 67.0386 45.2331 67.2939L50.6996 68.3872L42.1112 76.9238Z" fill="#FFC59E"/>
</svg>

<svg width="110" height="110" fill="none" xmlns="http://www.w3.org/2000/svg"><path d="M103.88 19.333l-.006-.006a.023.023 0 01-.005-.005l-.01-.01-.004-.004-.005-.005a.03.03 0 01-.006-.006l-.002-.001a19.21 19.21 0 00-8.692-4.987 18.971 18.971 0 00-4.95-8.656c-7.538-7.537-19.801-7.537-27.339 0-6.89 6.89-7.38 17.465-2.09 24.873L49.944 41.353a3.221 3.221 0 00-.881 2.91l2.278 11.391a3.222 3.222 0 002.527 2.527L65.26 60.46a3.222 3.222 0 002.91-.882l10.827-10.827c7.482 5.344 18.076 4.731 24.872-2.09 7.534-7.533 7.537-19.79.011-27.328zm-4.567 22.771l-.091.09-.004.004c-5.584 5.474-14.024 4.28-18.033.003l-.098-.097-.007-.007a3.212 3.212 0 00-2.327-.936c-.863.015-1.66.382-2.181.903l-11.74 11.739-7.594-1.52-1.519-7.593 11.699-11.698a3.222 3.222 0 000-4.557c-5.037-5.037-5.037-13.188 0-18.226 5.024-5.024 13.2-5.024 18.225 0a12.46 12.46 0 012.494 3.57 19.243 19.243 0 00-11.606 5.544 3.222 3.222 0 104.556 4.556c5.28-5.28 13.528-4.685 18.214-.012l.002.002.004.003.006.007c5.024 5.024 5.024 13.2 0 18.225zM39.03 34.518l-4.556-4.557a3.222 3.222 0 10-4.557 4.557l4.557 4.556a3.222 3.222 0 104.556-4.556zm-2.278 8.047h-9.113a3.222 3.222 0 100 6.443h9.113a3.222 3.222 0 100-6.444zm8.989-18.103a3.222 3.222 0 00-3.221 3.222v9.113a3.222 3.222 0 006.443 0v-9.113a3.222 3.222 0 00-3.222-3.222zm34.297 51.064l-4.556-4.557a3.222 3.222 0 10-4.557 4.557l4.557 4.556a3.222 3.222 0 104.556-4.556zM64 70.026a3.222 3.222 0 00-3.223 3.222v9.113a3.222 3.222 0 006.444 0v-9.113a3.222 3.222 0 00-3.222-3.222zm18.316-9.205h-9.113a3.222 3.222 0 000 6.444h9.113a3.222 3.222 0 000-6.444z" fill="#FFC59E"/><path d="M60.341 65.484a3.224 3.224 0 00-2.453-2.23l-9.285-1.858-1.857-9.285a3.221 3.221 0 00-5.43-1.653L30.53 61.178c-7.545-5.375-18.114-4.68-24.878 2.083-7.537 7.538-7.537 19.801 0 27.339 2.4 2.4 5.361 4.087 8.662 4.951 3.796 14.422 21.85 19.215 32.346 8.718 6.777-6.777 7.481-17.313 2.096-24.865l10.77-10.706a3.22 3.22 0 00.814-3.214zm-18.23 11.44l-.004.004-.002.003a3.226 3.226 0 000 4.556c5.044 5.045 5.025 13.2 0 18.226-7.487 7.487-20.345 3.264-21.818-7.33-.616-4.423.927-8.23 3.592-10.896a3.222 3.222 0 10-4.557-4.556 19.236 19.236 0 00-5.54 11.605 12.456 12.456 0 01-3.573-2.492c-5.024-5.025-5.024-13.201 0-18.226 5.025-5.025 13.201-5.025 18.226 0a3.222 3.222 0 004.55.007l8.619-8.568 1.102 5.51a3.222 3.222 0 002.527 2.527l5.467 1.093-8.589 8.537z" fill="#FFC59E"/></svg>
